&ACCESS RVP
&REL 1
&PARAM TEMPLATE = CIRC
&PARAM EDITMASK = *
DEF DRAWING()
$BASE = {FRAME: X 0, Y 0, Z 0, A 0, B 0, C 0}
$TOOL = {FRAME: X 0, Y 0, Z 100, A 0, B 0, C 0}
$VEL.CP = 0.1
$ACC.CP = 0.2
PTP {X 80.0, Y 161.0, Z 50, A 0, B 0, C 0}
WAIT SEC 0.5
LIN {X 80.0, Y 161.0, Z 0, A 0, B 0, C 0}
LIN {X 81.37931034482759, Y 160.20095124851366, Z 0, A 0, B 0, C 0} C_DIS
LIN {X 82.75862068965517, Y 159.45897740784778, Z 0, A 0, B 0, C 0} C_DIS
LIN {X 84.13793103448276, Y 158.77407847800237, Z 0, A 0, B 0, C 0} C_DIS
LIN {X 85.51724137931035, Y 158.1462544589774, Z 0, A 0, B 0, C 0} C_DIS
LIN {X 86.89655172413794, Y 157.5755053507729, Z 0, A 0, B 0, C 0} C_DIS
LIN {X 88.27586206896552, Y 157.06183115338882, Z 0, A 0, B 0, C 0} C_DIS
LIN {X 89.6551724137931, Y 156.6052318668252, Z 0, A 0, B 0, C 0} C_DIS
LIN {X 91.0344827586207, Y 156.20570749108202, Z 0, A 0, B 0, C 0} C_DIS
LIN {X 92.41379310344828, Y 155.86325802615931, Z 0, A 0, B 0, C 0} C_DIS
LIN {X 93.79310344827586, Y 155.57788347205707, Z 0, A 0, B 0, C 0} C_DIS
LIN {X 95.17241379310344, Y 155.34958382877525, Z 0, A 0, B 0, C 0} C_DIS
LIN {X 96.55172413793105, Y 155.1783590963139, Z 0, A 0, B 0, C 0} C_DIS
LIN {X 97.93103448275862, Y 155.064209274673, Z 0, A 0, B 0, C 0} C_DIS
LIN {X 99.3103448275862, Y 155.00713436385257, Z 0, A 0, B 0, C 0} C_DIS
LIN {X 100.6896551724138, Y 155.00713436385257, Z 0, A 0, B 0, C 0} C_DIS
LIN {X 102.06896551724138, Y 155.064209274673, Z 0, A 0, B 0, C 0} C_DIS
LIN {X 103.44827586206895, Y 155.1783590963139, Z 0, A 0, B 0, C 0} C_DIS
LIN {X 104.82758620689656, Y 155.34958382877528, Z 0, A 0, B 0, C 0} C_DIS
LIN {X 106.20689655172414, Y 155.57788347205707, Z 0, A 0, B 0, C 0} C_DIS
LIN {X 107.58620689655173, Y 155.86325802615931, Z 0, A 0, B 0, C 0} C_DIS
LIN {X 108.96551724137932, Y 156.20570749108202, Z 0, A 0, B 0, C 0} C_DIS
LIN {X 110.34482758620689, Y 156.6052318668252, Z 0, A 0, B 0, C 0} C_DIS
LIN {X 111.72413793103448, Y 157.06183115338882, Z 0, A 0, B 0, C 0} C_DIS
LIN {X 113.10344827586206, Y 157.5755053507729, Z 0, A 0, B 0, C 0} C_DIS
LIN {X 114.48275862068965, Y 158.1462544589774, Z 0, A 0, B 0, C 0} C_DIS
LIN {X 115.86206896551724, Y 158.77407847800237, Z 0, A 0, B 0, C 0} C_DIS
LIN {X 117.24137931034483, Y 159.45897740784778, Z 0, A 0, B 0, C 0} C_DIS
LIN {X 118.62068965517243, Y 160.20095124851366, Z 0, A 0, B 0, C 0} C_DIS
LIN {X 120.0, Y 161.0, Z 0, A 0, B 0, C 0} C_DIS
LIN {X 120.0, Y 161.0, Z 50, A 0, B 0, C 0}
WAIT SEC 0.5
PTP {X 55.0, Y 170.0, Z 50, A 0, B 0, C 0}
WAIT SEC 0.5
LIN {X 55.0, Y 170.0, Z 0, A 0, B 0, C 0}
LIN {X 55.26379192805382, Y 167.08078650255356, Z 0, A 0, B 0, C 0} C_DIS
LIN {X 56.052074993046105, Y 164.1957981143023, Z 0, A 0, B 0, C 0} C_DIS
LIN {X 57.3556072967739, Y 161.37885868632853, Z 0, A 0, B 0, C 0} C_DIS
LIN {X 59.15910611480693, Y 158.66299425787287, Z 0, A 0, B 0, C 0} C_DIS
LIN {X 61.441427072458495, Y 156.0800458562204, Z 0, A 0, B 0, C 0} C_DIS
LIN {X 64.17581204324603, Y 153.66029618976836, Z 0, A 0, B 0, C 0} C_DIS
LIN {X 67.3302028634591, Y 151.43211461095757, Z 0, A 0, B 0, C 0} C_DIS
LIN {X 70.86761718481776, Y 149.42162451155383, Z 0, A 0, B 0, C 0} C_DIS
LIN {X 74.7465820586928, Y 147.65239704976395, Z 0, A 0, B 0, C 0} C_DIS
LIN {X 78.92162016850945, Y 146.14517479995737, Z 0, A 0, B 0, C 0} C_DIS
LIN {X 83.34378300970386, Y 144.91762856494663, Z 0, A 0, B 0, C 0} C_DIS
LIN {X 87.96122476618507, Y 143.98415020198098, Z 0, A 0, B 0, C 0} C_DIS
LIN {X 92.7198101551256, Y 143.3556838913788, Z 0, A 0, B 0, C 0} C_DIS
LIN {X 97.56374911365621, Y 143.03959782601964, Z 0, A 0, B 0, C 0} C_DIS
LIN {X 102.4362508863438, Y 143.03959782601964, Z 0, A 0, B 0, C 0} C_DIS
LIN {X 107.28018984487443, Y 143.3556838913788, Z 0, A 0, B 0, C 0} C_DIS
LIN {X 112.03877523381493, Y 143.98415020198098, Z 0, A 0, B 0, C 0} C_DIS
LIN {X 116.65621699029616, Y 144.91762856494663, Z 0, A 0, B 0, C 0} C_DIS
LIN {X 121.07837983149057, Y 146.14517479995737, Z 0, A 0, B 0, C 0} C_DIS
LIN {X 125.25341794130722, Y 147.65239704976395, Z 0, A 0, B 0, C 0} C_DIS
LIN {X 129.13238281518224, Y 149.42162451155383, Z 0, A 0, B 0, C 0} C_DIS
LIN {X 132.66979713654086, Y 151.43211461095757, Z 0, A 0, B 0, C 0} C_DIS
LIN {X 135.82418795675397, Y 153.66029618976836, Z 0, A 0, B 0, C 0} C_DIS
LIN {X 138.55857292754152, Y 156.0800458562204, Z 0, A 0, B 0, C 0} C_DIS
LIN {X 140.84089388519305, Y 158.66299425787284, Z 0, A 0, B 0, C 0} C_DIS
LIN {X 142.64439270322612, Y 161.37885868632853, Z 0, A 0, B 0, C 0} C_DIS
LIN {X 143.9479250069539, Y 164.19579811430236, Z 0, A 0, B 0, C 0} C_DIS
LIN {X 144.73620807194618, Y 167.08078650255356, Z 0, A 0, B 0, C 0} C_DIS
LIN {X 145.0, Y 170.0, Z 0, A 0, B 0, C 0} C_DIS
LIN {X 145.0, Y 170.0, Z 0, A 0, B 0, C 0} C_DIS
LIN {X 144.73620807194618, Y 172.91921349744644, Z 0, A 0, B 0, C 0} C_DIS
LIN {X 143.9479250069539, Y 175.80420188569764, Z 0, A 0, B 0, C 0} C_DIS
LIN {X 142.64439270322612, Y 178.62114131367147, Z 0, A 0, B 0, C 0} C_DIS
LIN {X 140.84089388519305, Y 181.33700574212713, Z 0, A 0, B 0, C 0} C_DIS
LIN {X 138.55857292754152, Y 183.9199541437796, Z 0, A 0, B 0, C 0} C_DIS
LIN {X 135.82418795675397, Y 186.33970381023164, Z 0, A 0, B 0, C 0} C_DIS
LIN {X 132.6697971365409, Y 188.5678853890424, Z 0, A 0, B 0, C 0} C_DIS
LIN {X 129.13238281518224, Y 190.57837548844617, Z 0, A 0, B 0, C 0} C_DIS
LIN {X 125.2534179413072, Y 192.34760295023605, Z 0, A 0, B 0, C 0} C_DIS
LIN {X 121.07837983149057, Y 193.85482520004263, Z 0, A 0, B 0, C 0} C_DIS
LIN {X 116.65621699029616, Y 195.08237143505337, Z 0, A 0, B 0, C 0} C_DIS
LIN {X 112.03877523381495, Y 196.01584979801902, Z 0, A 0, B 0, C 0} C_DIS
LIN {X 107.28018984487443, Y 196.6443161086212, Z 0, A 0, B 0, C 0} C_DIS
LIN {X 102.4362508863438, Y 196.96040217398033, Z 0, A 0, B 0, C 0} C_DIS
LIN {X 97.56374911365621, Y 196.96040217398033, Z 0, A 0, B 0, C 0} C_DIS
LIN {X 92.7198101551256, Y 196.6443161086212, Z 0, A 0, B 0, C 0} C_DIS
LIN {X 87.96122476618507, Y 196.01584979801902, Z 0, A 0, B 0, C 0} C_DIS
LIN {X 83.34378300970386, Y 195.08237143505337, Z 0, A 0, B 0, C 0} C_DIS
LIN {X 78.92162016850945, Y 193.85482520004263, Z 0, A 0, B 0, C 0} C_DIS
LIN {X 74.7465820586928, Y 192.34760295023605, Z 0, A 0, B 0, C 0} C_DIS
LIN {X 70.86761718481776, Y 190.57837548844617, Z 0, A 0, B 0, C 0} C_DIS
LIN {X 67.33020286345914, Y 188.56788538904243, Z 0, A 0, B 0, C 0} C_DIS
LIN {X 64.17581204324603, Y 186.33970381023164, Z 0, A 0, B 0, C 0} C_DIS
LIN {X 61.441427072458495, Y 183.9199541437796, Z 0, A 0, B 0, C 0} C_DIS
LIN {X 59.15910611480694, Y 181.33700574212716, Z 0, A 0, B 0, C 0} C_DIS
LIN {X 57.3556072967739, Y 178.62114131367147, Z 0, A 0, B 0, C 0} C_DIS
LIN {X 56.052074993046105, Y 175.80420188569767, Z 0, A 0, B 0, C 0} C_DIS
LIN {X 55.26379192805382, Y 172.91921349744644, Z 0, A 0, B 0, C 0} C_DIS
LIN {X 55.0, Y 170.0, Z 0, A 0, B 0, C 0} C_DIS
LIN {X 55.0, Y 170.0, Z 50, A 0, B 0, C 0}
WAIT SEC 0.5
PTP {X 80.0, Y 179.0, Z 50, A 0, B 0, C 0}
WAIT SEC 0.5
LIN {X 80.0, Y 179.0, Z 0, A 0, B 0, C 0}
LIN {X 80.0293102142282, Y 178.67564294472817, Z 0, A 0, B 0, C 0} C_DIS
LIN {X 80.11689722144956, Y 178.3550886793669, Z 0, A 0, B 0, C 0} C_DIS
LIN {X 80.26173414408599, Y 178.04209540959204, Z 0, A 0, B 0, C 0} C_DIS
LIN {X 80.46212290164522, Y 177.7403326953192, Z 0, A 0, B 0, C 0} C_DIS
LIN {X 80.71571411916206, Y 177.45333842846895, Z 0, A 0, B 0, C 0} C_DIS
LIN {X 81.01953467147177, Y 177.18447735441868, Z 0, A 0, B 0, C 0} C_DIS
LIN {X 81.37002254038435, Y 176.93690162343972, Z 0, A 0, B 0, C 0} C_DIS
LIN {X 81.76306857609086, Y 176.7135138346171, Z 0, A 0, B 0, C 0} C_DIS
LIN {X 82.19406467318808, Y 176.51693300552932, Z 0, A 0, B 0, C 0} C_DIS
LIN {X 82.65795779650105, Y 176.34946386666192, Z 0, A 0, B 0, C 0} C_DIS
LIN {X 83.14930922330043, Y 176.21306984054962, Z 0, A 0, B 0, C 0} C_DIS
LIN {X 83.6623583073539, Y 176.10935002244233, Z 0, A 0, B 0, C 0} C_DIS
LIN {X 84.19109001723618, Y 176.0395204323754, Z 0, A 0, B 0, C 0} C_DIS
LIN {X 84.72930545707291, Y 176.00439975844662, Z 0, A 0, B 0, C 0} C_DIS
LIN {X 85.27069454292709, Y 176.00439975844662, Z 0, A 0, B 0, C 0} C_DIS
LIN {X 85.80890998276382, Y 176.0395204323754, Z 0, A 0, B 0, C 0} C_DIS
LIN {X 86.3376416926461, Y 176.10935002244233, Z 0, A 0, B 0, C 0} C_DIS
LIN {X 86.85069077669957, Y 176.21306984054962, Z 0, A 0, B 0, C 0} C_DIS
LIN {X 87.34204220349895, Y 176.34946386666192, Z 0, A 0, B 0, C 0} C_DIS
LIN {X 87.80593532681192, Y 176.51693300552932, Z 0, A 0, B 0, C 0} C_DIS
LIN {X 88.23693142390914, Y 176.7135138346171, Z 0, A 0, B 0, C 0} C_DIS
LIN {X 88.62997745961565, Y 176.93690162343972, Z 0, A 0, B 0, C 0} C_DIS
LIN {X 88.98046532852823, Y 177.18447735441868, Z 0, A 0, B 0, C 0} C_DIS
LIN {X 89.28428588083794, Y 177.45333842846895, Z 0, A 0, B 0, C 0} C_DIS
LIN {X 89.53787709835478, Y 177.7403326953192, Z 0, A 0, B 0, C 0} C_DIS
LIN {X 89.73826585591401, Y 178.04209540959206, Z 0, A 0, B 0, C 0} C_DIS
LIN {X 89.88310277855044, Y 178.3550886793669, Z 0, A 0, B 0, C 0} C_DIS
LIN {X 89.9706897857718, Y 178.67564294472817, Z 0, A 0, B 0, C 0} C_DIS
LIN {X 90.0, Y 179.0, Z 0, A 0, B 0, C 0} C_DIS
LIN {X 90.0, Y 179.0, Z 0, A 0, B 0, C 0} C_DIS
LIN {X 89.9706897857718, Y 179.3243570552718, Z 0, A 0, B 0, C 0} C_DIS
LIN {X 89.88310277855044, Y 179.64491132063307, Z 0, A 0, B 0, C 0} C_DIS
LIN {X 89.73826585591401, Y 179.95790459040794, Z 0, A 0, B 0, C 0} C_DIS
LIN {X 89.53787709835478, Y 180.2596673046808, Z 0, A 0, B 0, C 0} C_DIS
LIN {X 89.28428588083796, Y 180.54666157153105, Z 0, A 0, B 0, C 0} C_DIS
LIN {X 88.98046532852823, Y 180.8155226455813, Z 0, A 0, B 0, C 0} C_DIS
LIN {X 88.62997745961565, Y 181.06309837656025, Z 0, A 0, B 0, C 0} C_DIS
LIN {X 88.23693142390914, Y 181.2864861653829, Z 0, A 0, B 0, C 0} C_DIS
LIN {X 87.80593532681192, Y 181.48306699447068, Z 0, A 0, B 0, C 0} C_DIS
LIN {X 87.34204220349895, Y 181.65053613333808, Z 0, A 0, B 0, C 0} C_DIS
LIN {X 86.85069077669957, Y 181.78693015945038, Z 0, A 0, B 0, C 0} C_DIS
LIN {X 86.3376416926461, Y 181.89064997755767, Z 0, A 0, B 0, C 0} C_DIS
LIN {X 85.80890998276382, Y 181.96047956762456, Z 0, A 0, B 0, C 0} C_DIS
LIN {X 85.27069454292709, Y 181.99560024155338, Z 0, A 0, B 0, C 0} C_DIS
LIN {X 84.72930545707291, Y 181.99560024155338, Z 0, A 0, B 0, C 0} C_DIS
LIN {X 84.19109001723618, Y 181.96047956762456, Z 0, A 0, B 0, C 0} C_DIS
LIN {X 83.6623583073539, Y 181.89064997755767, Z 0, A 0, B 0, C 0} C_DIS
LIN {X 83.14930922330043, Y 181.78693015945038, Z 0, A 0, B 0, C 0} C_DIS
LIN {X 82.65795779650105, Y 181.65053613333808, Z 0, A 0, B 0, C 0} C_DIS
LIN {X 82.19406467318808, Y 181.48306699447068, Z 0, A 0, B 0, C 0} C_DIS
LIN {X 81.76306857609086, Y 181.2864861653829, Z 0, A 0, B 0, C 0} C_DIS
LIN {X 81.37002254038435, Y 181.06309837656025, Z 0, A 0, B 0, C 0} C_DIS
LIN {X 81.01953467147177, Y 180.8155226455813, Z 0, A 0, B 0, C 0} C_DIS
LIN {X 80.71571411916206, Y 180.54666157153105, Z 0, A 0, B 0, C 0} C_DIS
LIN {X 80.46212290164522, Y 180.2596673046808, Z 0, A 0, B 0, C 0} C_DIS
LIN {X 80.26173414408599, Y 179.95790459040794, Z 0, A 0, B 0, C 0} C_DIS
LIN {X 80.11689722144956, Y 179.64491132063307, Z 0, A 0, B 0, C 0} C_DIS
LIN {X 80.0293102142282, Y 179.3243570552718, Z 0, A 0, B 0, C 0} C_DIS
LIN {X 80.0, Y 179.0, Z 0, A 0, B 0, C 0} C_DIS
LIN {X 80.0, Y 179.0, Z 50, A 0, B 0, C 0}
WAIT SEC 0.5
PTP {X 110.0, Y 179.0, Z 50, A 0, B 0, C 0}
WAIT SEC 0.5
LIN {X 110.0, Y 179.0, Z 0, A 0, B 0, C 0}
LIN {X 110.0293102142282, Y 178.67564294472817, Z 0, A 0, B 0, C 0} C_DIS
LIN {X 110.11689722144956, Y 178.3550886793669, Z 0, A 0, B 0, C 0} C_DIS
LIN {X 110.26173414408599, Y 178.04209540959204, Z 0, A 0, B 0, C 0} C_DIS
LIN {X 110.46212290164522, Y 177.7403326953192, Z 0, A 0, B 0, C 0} C_DIS
LIN {X 110.71571411916206, Y 177.45333842846895, Z 0, A 0, B 0, C 0} C_DIS
LIN {X 111.01953467147177, Y 177.18447735441868, Z 0, A 0, B 0, C 0} C_DIS
LIN {X 111.37002254038435, Y 176.93690162343972, Z 0, A 0, B 0, C 0} C_DIS
LIN {X 111.76306857609086, Y 176.7135138346171, Z 0, A 0, B 0, C 0} C_DIS
LIN {X 112.19406467318808, Y 176.51693300552932, Z 0, A 0, B 0, C 0} C_DIS
LIN {X 112.65795779650105, Y 176.34946386666192, Z 0, A 0, B 0, C 0} C_DIS
LIN {X 113.14930922330043, Y 176.21306984054962, Z 0, A 0, B 0, C 0} C_DIS
LIN {X 113.6623583073539, Y 176.10935002244233, Z 0, A 0, B 0, C 0} C_DIS
LIN {X 114.19109001723618, Y 176.0395204323754, Z 0, A 0, B 0, C 0} C_DIS
LIN {X 114.72930545707291, Y 176.00439975844662, Z 0, A 0, B 0, C 0} C_DIS
LIN {X 115.27069454292709, Y 176.00439975844662, Z 0, A 0, B 0, C 0} C_DIS
LIN {X 115.80890998276382, Y 176.0395204323754, Z 0, A 0, B 0, C 0} C_DIS
LIN {X 116.3376416926461, Y 176.10935002244233, Z 0, A 0, B 0, C 0} C_DIS
LIN {X 116.85069077669958, Y 176.21306984054962, Z 0, A 0, B 0, C 0} C_DIS
LIN {X 117.34204220349895, Y 176.34946386666192, Z 0, A 0, B 0, C 0} C_DIS
LIN {X 117.80593532681192, Y 176.51693300552932, Z 0, A 0, B 0, C 0} C_DIS
LIN {X 118.23693142390914, Y 176.7135138346171, Z 0, A 0, B 0, C 0} C_DIS
LIN {X 118.62997745961566, Y 176.93690162343972, Z 0, A 0, B 0, C 0} C_DIS
LIN {X 118.98046532852823, Y 177.18447735441868, Z 0, A 0, B 0, C 0} C_DIS
LIN {X 119.28428588083794, Y 177.45333842846895, Z 0, A 0, B 0, C 0} C_DIS
LIN {X 119.53787709835478, Y 177.7403326953192, Z 0, A 0, B 0, C 0} C_DIS
LIN {X 119.73826585591401, Y 178.04209540959206, Z 0, A 0, B 0, C 0} C_DIS
LIN {X 119.88310277855044, Y 178.3550886793669, Z 0, A 0, B 0, C 0} C_DIS
LIN {X 119.9706897857718, Y 178.67564294472817, Z 0, A 0, B 0, C 0} C_DIS
LIN {X 120.0, Y 179.0, Z 0, A 0, B 0, C 0} C_DIS
LIN {X 120.0, Y 179.0, Z 0, A 0, B 0, C 0} C_DIS
LIN {X 119.9706897857718, Y 179.3243570552718, Z 0, A 0, B 0, C 0} C_DIS
LIN {X 119.88310277855044, Y 179.64491132063307, Z 0, A 0, B 0, C 0} C_DIS
LIN {X 119.73826585591401, Y 179.95790459040794, Z 0, A 0, B 0, C 0} C_DIS
LIN {X 119.53787709835478, Y 180.2596673046808, Z 0, A 0, B 0, C 0} C_DIS
LIN {X 119.28428588083794, Y 180.54666157153105, Z 0, A 0, B 0, C 0} C_DIS
LIN {X 118.98046532852823, Y 180.8155226455813, Z 0, A 0, B 0, C 0} C_DIS
LIN {X 118.62997745961566, Y 181.06309837656025, Z 0, A 0, B 0, C 0} C_DIS
LIN {X 118.23693142390914, Y 181.2864861653829, Z 0, A 0, B 0, C 0} C_DIS
LIN {X 117.8059353268119, Y 181.48306699447068, Z 0, A 0, B 0, C 0} C_DIS
LIN {X 117.34204220349895, Y 181.65053613333808, Z 0, A 0, B 0, C 0} C_DIS
LIN {X 116.85069077669958, Y 181.78693015945038, Z 0, A 0, B 0, C 0} C_DIS
LIN {X 116.3376416926461, Y 181.89064997755767, Z 0, A 0, B 0, C 0} C_DIS
LIN {X 115.80890998276382, Y 181.96047956762456, Z 0, A 0, B 0, C 0} C_DIS
LIN {X 115.27069454292709, Y 181.99560024155338, Z 0, A 0, B 0, C 0} C_DIS
LIN {X 114.72930545707291, Y 181.99560024155338, Z 0, A 0, B 0, C 0} C_DIS
LIN {X 114.19109001723618, Y 181.96047956762456, Z 0, A 0, B 0, C 0} C_DIS
LIN {X 113.6623583073539, Y 181.89064997755767, Z 0, A 0, B 0, C 0} C_DIS
LIN {X 113.14930922330043, Y 181.78693015945038, Z 0, A 0, B 0, C 0} C_DIS
LIN {X 112.65795779650105, Y 181.65053613333808, Z 0, A 0, B 0, C 0} C_DIS
LIN {X 112.19406467318808, Y 181.48306699447068, Z 0, A 0, B 0, C 0} C_DIS
LIN {X 111.76306857609086, Y 181.2864861653829, Z 0, A 0, B 0, C 0} C_DIS
LIN {X 111.37002254038435, Y 181.06309837656025, Z 0, A 0, B 0, C 0} C_DIS
LIN {X 111.01953467147177, Y 180.8155226455813, Z 0, A 0, B 0, C 0} C_DIS
LIN {X 110.71571411916206, Y 180.54666157153105, Z 0, A 0, B 0, C 0} C_DIS
LIN {X 110.46212290164522, Y 180.2596673046808, Z 0, A 0, B 0, C 0} C_DIS
LIN {X 110.26173414408599, Y 179.95790459040794, Z 0, A 0, B 0, C 0} C_DIS
LIN {X 110.11689722144956, Y 179.64491132063307, Z 0, A 0, B 0, C 0} C_DIS
LIN {X 110.0293102142282, Y 179.3243570552718, Z 0, A 0, B 0, C 0} C_DIS
LIN {X 110.0, Y 179.0, Z 0, A 0, B 0, C 0} C_DIS
LIN {X 110.0, Y 179.0, Z 50, A 0, B 0, C 0}
WAIT SEC 0.5
PTP {X 0, Y 0, Z 200, A 0, B 0, C 0}
END